X:112
T:Lo, God To Heav'n Ascendeth
%%stretchlast false
M:4/4
L:1/4
K:Eb clef=C1
"^I"[EGeb] "^IV"[A,Aec']3/2 "^I¹"[G,Beb]/ "^IV"[A,cea] | "^I"[E,Beg] [B,Bef] "^V"[B,Bdf]/ [B,Bcf]/ [B,Bdf] | "^i"[Ee]/ "^i¹"[A,Beg]/ "^IV"[A,cea]/ "^IV²"[E,cea]/ "^I"[E,Beg]/ "^I²"[B,Beg]/ [B,Bef]/ "^V"[B,Bdf]/ | [B,Fdf]/ "^I"[E,Feg]/ [E,Ge]3/2 [EGe] "^i¹"[A,e]/ | [A,Geb] "^IVmaj7³"[G,Aec']/ "^IV"[A,Aec'] "^i"[E,Beb]/ "^IV²"[E,cea]/ [B,cea]/ | "^I²"[B,Beg]/ "^iii¹"[B,Bdg]/ "^v"[B,Bcf]/ "^V"[B,Bdf] "^i"[EBef]/ [A,Bef] | [E,e]/ "^I"[E,Beg]/ "^vi+"[B,cea] "^iii¹"[B,Bdg] "^i"[E,Bef] | "^ii"[E,Fef]/ "^I"[E,Feg]/ [EGe] [EGe] "^i"[Ee] | "^iii¹"[B,Bdg] "^vi7"[CBcg] [G,B=Bg] [G,B=Bf] | "^III+"[G,G=Be] "^I7"[EGde] [EGde]3/2 "^iii"[FGd]/ | "^I"[EBeg] "^vi7"[CBeg] "^iii¹"[B,Bdg]/ "^V7"[B,Adf]/ "^iii¹"[B,Bdg] | "^i"[E,Eea] [EFBb]/ [EFeb]3/2 "^I"[EFdg]/ "^I7"[Edg] | "^vi"[CGde]/ "^iii"[CBdg]/ "^iii¹"[B,Bdg] "^V7"[B,Adf]/ "^iii¹"[B,Bdg]/ "^I"[EBeg]/ | "^i"[Eea]/ [E,Eea]/ "^v"[F,Fcb] [G,FBb] "^IVmaj7"[A,Ecg] | "^v"[B,B]/ "^iii¹"[B,Bg]/ "^i"[E,ABf] "^I"[E,GBe] [E,FBe] | "^vii¹"[Fd] "^I¹"[Ge]3 |]
